X:16
T:Wellington's Advance
R:double jig
M:6/8
L:1/8
Q:3/8=145
K:Ador
E.A.A AGA|cBA c2d|~e3 efg|dBG GFG|
E.A.A AGA|cBA Bcd|e(3.g.f.e dcB|c.A.A BAG|
E.A.A AGA|cBA c2d|~e3 efg|dBG GFG|
E.A.A AGA|cBA Bcd|e(3.g.f.e dcB|c.A.A ~A2 e|
aea a.ea|aed cBA|BAG ~g3|dBG GBd|
e2a a^ga|e2g gfg|e(3.g.f.e dcB|cAG A2e|
aea a.ea|aed cBA|BAB ~g3|dBG GBd|
e2a a^ga|e2g gfg|e(3.g.f.e dcB|c.A.A A2G|
